!!!COM: Ulenberg, Caspar
!!!CDT: 1548/12/24-1617/02/16
!!!OPR: Die Psalmen Davids
!!!ONM: 28
!!!ONM-carmgen: 26
!!!OTL@@LA: Afferte Domino
!!!OTL-incipit@@DE: Ihr kinder Gottes hoch von stande
**kern	**text
*Ivox	*
*clefC3	*
*k[b-]	*
*M2/1	*
*met(C|)	*
*MM180	*
=-	=-
*xywh-#158:187,135,710,558	*
1d	Ihr
2G	kin-
2G	-der
=-	=-
2d	Got-
2e	-tes
2f	hoch
2f	von
=-	=-
1e	stan-
1d	-de
=-	=-
*xywh-#158:189,683,714,232	*
1r	.
1g	Ihr
=-	=-
1f	ho-
1e	-hen
=-	=-
2d	heu-
2d	-bter
2c	in
2B-	dem
=-	=-
1A	lan-
1G	-de/
=-	=-
*xywh-#158:193,906,710,228	*
1r	.
1G	Brin-
=-	=-
2A	-get
2B-	dem
2c	Her-
2A	-ren
=-	=-
2B-	wol-
2c	-ge-
1d	-můt
=-	=-
*xywh-#158:195,1126,709,277	*
1r	.
1d	Wi-
=-	=-
2c	-der
2d	und
2e	böck
2f	zům
=-	=-
2e	opf-
2e	-fer
1d	gůt.
=-	=-
*xywh-#159:10,147,769,291	*
1r	.
1g	Brin-
=-	=-
1f	-get
2d	ihm
1c	ehr
=-	=-
.	.
2B-	und
1A	preis/
=-	=-
1r	.
*xywh-#159:35,428,742,234	*
1c	Ja
=-	=-
2d	brin-
2e	-get
2f	ehr
2f	her
=-	=-
2g	al-
2f	-zů-
1e	-sa-
=-	=-
1d	-men/
1r	.
=-	=-
*xywh-#159:37,650,745,231	*
1f	Zů
2e	lo-
2d	-be
=-	=-
2c	sei-
2c	-nem
2d	heil-
2c	-gen
=-	=-
1B-	na-
1A	-men
=-	=-
*xywh-#159:42,873,741,217	*
1r	.
1d	Mit
=-	=-
2c	sün-
2B-	-der-
2A	-li-
2A	-chem
=-	=-
2Gll;	vleis.
==	==
*-	*-
!!!RDF**kern: l = terminal long
!!!RDF**kern: i = editorial accidental
!!!AGN: Psalm
!!!YOR: https://mdz-nbn-resolving.de/details:bsb11116252
!!!YOO: München, Bayerische Staatsbibliothek
!!!URL-scan: https://www.digitale-sammlungen.de/de/view/bsb11116252?page=158
!!!IIIF: https://api.digitale-sammlungen.de/iiif/presentation/v2/bsb11116252/manifest
!!!EED: Wolfgang Drescher
!!!END: 2023/04/03
!!!ENC: Wolfgang Drescher
!!!EEV: 2023/04/03
!!!title: @{ONM}. @{OTL} / <i>@{OTL-incipit@@DE}</i>